X:6
T:Aeroplane Jelly
T:1930
C:Albert Lenertz 1891-1943
S:https://nla.gov.au/nla.obj-181524182
O:Australia 
L:1/4
M:3/4
I:linebreak $
K:C
[I: MIDI=program 59]FEF | DEF | G^FG | E2E/E/ | D^FG | ABc | B(G2 | G2)G/G/ | 
w:I've got a song that won't take ve-ry long. Quite a good sort of note if I strike it. It is
A^GA | c2B/A/ | G^FG | c2^F/E/ | D^FG | ABc | BG2 | Z ||
w:some-thing we eat, and I think it's quite sweet, and I know you are go-ing to like it
|:C2D | EDC | E(G2 | G2)z | ccc | dcB | (c3 | c2)E
w:I like ae-ro-plane Je-lly*Ae-ro-plane Je-lly for me. *I
FEF | DEF | G^FG | E2G | AAA | ABc | dBA | G2G | 
w:like it for Break-fast I like it for tea. A lit-tle each day is a great re-ci-pe. The
ccc | cdB | AAA | A2G/G/ | A^GA | cBA | GFE | D3 | 
w:qua-li-ty's high as the name would im-ply, and it's made from pure fruit, one more good rea-son why
C2D | EDC | E(G2 | G3)ccc|dcB(c3|c2)z :| 
w:I like ae-ro-plane Je-lly * Ae-ro-plane Je-lly for me!

